X: 22
T: Frost Is All Over, The
Z: Fritz Bogott
S: https://thesession.org/tunes/448#setting52639
R: jig
M: 6/8
L: 1/8
K: Dmaj
A|:def edB|AFA E2D|FAA AFA|Bee edB|
def edB|AFD E2D|FAA AFA|1 Bdd d3:|2 Bdd d2g||
|:fga agf|gab bag|fga agf|gfg e2 g|
fga agf|gab bag|fed efg|fdd d2 g|
fga agf|gab bag|fga agf|gfg e2 g|
fga fga|gab gab|fed efg|fed edB:|

